htdocs/img/logo.svg

<svg width="842" height="160" viewBox="0 0 842 160" fill="none" xmlns="http://www.w3.org/2000/svg">
<g clip-path="url(#clip0_407_2)">
<path d="M225.341 106.518L226.745 113.775L228.618 106.128L248.905 41.5212H256.864L276.917 105.582L279.102 114.477L280.897 106.284L298.219 41.5212H307.894L283.316 125.947H275.357L253.665 58.9994L252.651 54.3958L251.636 59.0775L230.335 125.947H222.376L197.875 41.5212H207.472L225.341 106.518Z" fill="black"/>
<path d="M358.3 127.508C351.122 127.508 344.619 125.739 338.793 122.202C333.019 118.665 328.52 113.749 325.295 107.455C322.069 101.109 320.457 94.008 320.457 86.1532V82.798C320.457 74.6831 322.017 67.3744 325.139 60.8721C328.312 54.3698 332.707 49.272 338.325 45.5786C343.943 41.8333 350.029 39.9606 356.584 39.9606C366.831 39.9606 374.946 43.4719 380.928 50.4944C386.963 57.4649 389.98 67.0103 389.98 79.1306V84.3585H329.742V86.1532C329.742 95.7246 332.473 103.709 337.935 110.108C343.449 116.454 350.368 119.627 358.691 119.627C363.684 119.627 368.08 118.717 371.877 116.896C375.727 115.075 379.212 112.162 382.333 108.157L388.185 112.605C381.319 122.54 371.357 127.508 358.3 127.508ZM356.584 47.9195C349.561 47.9195 343.631 50.4944 338.793 55.6442C334.008 60.7941 331.095 67.7126 330.054 76.3997H380.694V75.3853C380.434 67.2704 378.119 60.664 373.75 55.5662C369.38 50.4684 363.658 47.9195 356.584 47.9195Z" fill="black"/>
<path d="M444.209 127.508C431.256 127.508 420.775 123.659 412.764 115.96C404.753 108.209 400.748 98.1434 400.748 85.763V83.5782C400.748 74.9432 402.334 67.3224 405.507 60.7161C408.732 54.1097 413.414 49.0119 419.552 45.4226C425.69 41.7813 432.973 39.9606 441.4 39.9606C453.26 39.9606 462.624 43.654 469.49 51.0406C476.357 58.3752 479.79 68.6229 479.79 81.7836V92.0052H427.511C428.447 96.7389 430.502 100.458 433.675 103.163C436.848 105.868 440.958 107.221 446.004 107.221C454.327 107.221 460.829 104.308 465.511 98.4816L477.527 112.683C474.25 117.208 469.594 120.824 463.56 123.529C457.578 126.181 451.128 127.508 444.209 127.508ZM441.244 60.2479C433.545 60.2479 428.968 65.3457 427.511 75.5414H454.041V73.5126C454.145 69.2991 453.078 66.048 450.841 63.7591C448.605 61.4183 445.406 60.2479 441.244 60.2479Z" fill="black"/>
<path d="M524.656 64.7735L536.906 41.5212H564.216L541.978 82.6419L565.308 125.947H537.843L524.578 100.978L511.547 125.947H483.925L507.334 82.6419L485.174 41.5212H512.796L524.656 64.7735Z" fill="black"/>
<path d="M651.061 84.3585C651.061 97.4672 648.096 107.949 642.166 115.804C636.288 123.607 628.329 127.508 618.289 127.508C610.539 127.508 604.166 124.673 599.173 119.003V158.407H572.877V41.5212H597.456L598.236 49.324C603.282 43.0818 609.914 39.9606 618.133 39.9606C628.537 39.9606 636.626 43.81 642.4 51.5088C648.174 59.1555 651.061 69.6893 651.061 83.1101V84.3585ZM624.766 82.7199C624.766 67.7386 620.396 60.2479 611.657 60.2479C605.415 60.2479 601.253 62.4847 599.173 66.9583V100.198C601.461 104.88 605.675 107.221 611.813 107.221C620.188 107.221 624.506 99.9901 624.766 85.5289V82.7199Z" fill="black"/>
<path d="M690.465 125.947H664.092V41.5212H690.465V125.947ZM662.531 19.7514C662.531 16.0061 663.884 12.937 666.589 10.5441C669.294 8.15126 672.805 6.95483 677.122 6.95483C681.44 6.95483 684.951 8.15126 687.656 10.5441C690.361 12.937 691.714 16.0061 691.714 19.7514C691.714 23.4967 690.361 26.5658 687.656 28.9587C684.951 31.3516 681.44 32.548 677.122 32.548C672.805 32.548 669.294 31.3516 666.589 28.9587C663.884 26.5658 662.531 23.4967 662.531 19.7514Z" fill="black"/>
<path d="M757.803 65.3197L749.142 64.6955C740.871 64.6955 735.565 67.2964 733.224 72.4983V125.947H706.929V41.5212H731.586L732.444 52.3671C736.866 44.0961 743.03 39.9606 750.937 39.9606C753.746 39.9606 756.191 40.2727 758.271 40.897L757.803 65.3197Z" fill="black"/>
<path d="M806.571 127.508C793.618 127.508 783.136 123.659 775.125 115.96C767.115 108.209 763.109 98.1434 763.109 85.763V83.5782C763.109 74.9432 764.696 67.3224 767.869 60.7161C771.094 54.1097 775.776 49.0119 781.914 45.4226C788.052 41.7813 795.335 39.9606 803.762 39.9606C815.622 39.9606 824.985 43.654 831.852 51.0406C838.718 58.3752 842.151 68.6229 842.151 81.7836V92.0052H789.873C790.809 96.7389 792.864 100.458 796.037 103.163C799.21 105.868 803.32 107.221 808.365 107.221C816.688 107.221 823.191 104.308 827.872 98.4816L839.889 112.683C836.611 117.208 831.956 120.824 825.922 123.529C819.939 126.181 813.489 127.508 806.571 127.508ZM803.606 60.2479C795.907 60.2479 791.329 65.3457 789.873 75.5414H816.402V73.5126C816.506 69.2991 815.44 66.048 813.203 63.7591C810.966 61.4183 807.767 60.2479 803.606 60.2479Z" fill="black"/>
<path d="M103.881 101.713L57.5743 114.12M62.5496 47.9402L51.2499 59.2398M51.2499 59.2398L39.9503 70.5395M51.2499 59.2398L39.9503 47.9402M51.2499 59.2398L62.5496 70.5395M119.758 47.9402L108.459 59.2398M108.459 59.2398L97.1591 70.5395M108.459 59.2398L97.1591 47.9402M108.459 59.2398L119.758 70.5395" stroke="black" stroke-width="6.39205"/>
<rect x="7.99006" y="7.99006" width="143.821" height="143.821" stroke="black" stroke-width="15.9801"/>
</g>
<defs>
<clipPath id="clip0_407_2">
<rect width="842" height="160" fill="white"/>
</clipPath>
</defs>
</svg>

<svg xmlns="http://www.w3.org/2000/svg" width="842" height="160" fill="none" xmlns:v="https://vecta.io/nano"><g clip-path="url(#A)"><g fill="#000"><path d="M225.341 106.518l1.404 7.257 1.873-7.647 20.287-64.607h7.959l20.053 64.061 2.185 8.895 1.795-8.193 17.322-64.763h9.675l-24.578 84.426h-7.959l-21.692-66.948-1.014-4.604-1.015 4.682-21.301 66.87h-7.959l-24.501-84.426h9.597l17.869 64.997zm132.959 20.99c-7.178 0-13.681-1.769-19.507-5.306-5.774-3.537-10.273-8.453-13.498-14.747-3.226-6.346-4.838-13.447-4.838-21.302v-3.355c0-8.115 1.56-15.424 4.682-21.926 3.173-6.502 7.568-11.6 13.186-15.294 5.618-3.745 11.704-5.618 18.259-5.618 10.247 0 18.362 3.511 24.344 10.534 6.035 6.971 9.052 16.516 9.052 28.636v5.228h-60.238v1.795c0 9.571 2.731 17.556 8.193 23.955 5.514 6.346 12.433 9.519 20.756 9.519 4.993 0 9.389-.91 13.186-2.731 3.85-1.821 7.335-4.734 10.456-8.739l5.852 4.448c-6.866 9.935-16.828 14.903-29.885 14.903zm-1.716-79.588c-7.023 0-12.953 2.575-17.791 7.725-4.785 5.15-7.698 12.068-8.739 20.755h50.64v-1.014c-.26-8.115-2.575-14.721-6.944-19.819s-10.092-7.647-17.166-7.647zm87.625 79.588c-12.953 0-23.434-3.849-31.445-11.548-8.011-7.751-12.016-17.817-12.016-30.197v-2.185c0-8.635 1.586-16.256 4.759-22.862 3.225-6.606 7.907-11.704 14.045-15.293 6.138-3.641 13.421-5.462 21.848-5.462 11.86 0 21.224 3.693 28.09 11.08 6.867 7.335 10.3 17.582 10.3 30.743v10.222h-52.279c.936 4.734 2.991 8.453 6.164 11.158s7.283 4.058 12.329 4.058c8.323 0 14.825-2.913 19.507-8.739l12.016 14.201c-3.277 4.525-7.933 8.141-13.967 10.846-5.982 2.652-12.432 3.979-19.351 3.979zm-2.965-67.26c-7.699 0-12.276 5.098-13.733 15.293h26.53v-2.029c.104-4.214-.963-7.465-3.2-9.754-2.236-2.341-5.435-3.511-9.597-3.511zm83.412 4.526l12.25-23.252h27.31l-22.238 41.121 23.33 43.305h-27.465l-13.265-24.969-13.031 24.969h-27.622l23.409-43.305-22.16-41.121h27.622l11.86 23.252zm126.405 19.585c0 13.109-2.965 23.59-8.895 31.445-5.878 7.803-13.837 11.704-23.877 11.704-7.75 0-14.123-2.835-19.116-8.505v39.404h-26.296V41.521h24.579l.78 7.803c5.046-6.242 11.678-9.363 19.897-9.363 10.404 0 18.493 3.849 24.267 11.548 5.774 7.647 8.661 18.181 8.661 31.601v1.248zm-26.295-1.639c0-14.981-4.37-22.472-13.109-22.472-6.242 0-10.404 2.237-12.484 6.71v33.24c2.288 4.682 6.502 7.023 12.64 7.023 8.375 0 12.693-7.231 12.953-21.692V82.72zm65.699 43.227h-26.373V41.521h26.373v84.426zM662.531 19.751c0-3.745 1.353-6.814 4.058-9.207s6.216-3.589 10.533-3.589 7.829 1.196 10.534 3.589 4.058 5.462 4.058 9.207-1.353 6.814-4.058 9.207-6.216 3.589-10.534 3.589-7.828-1.196-10.533-3.589-4.058-5.462-4.058-9.207zm95.272 45.569l-8.661-.624c-8.271 0-13.577 2.601-15.918 7.803v53.449h-26.295V41.521h24.657l.858 10.846c4.422-8.271 10.586-12.407 18.493-12.407 2.809 0 5.254.312 7.334.936l-.468 24.423zm48.768 62.188c-12.953 0-23.435-3.849-31.446-11.548-8.01-7.751-12.016-17.817-12.016-30.197v-2.185c0-8.635 1.587-16.256 4.76-22.862 3.225-6.606 7.907-11.704 14.045-15.293 6.138-3.641 13.421-5.462 21.848-5.462 11.86 0 21.223 3.693 28.09 11.08 6.866 7.335 10.299 17.582 10.299 30.743v10.222h-52.278c.936 4.734 2.991 8.453 6.164 11.158s7.283 4.058 12.328 4.058c8.323 0 14.826-2.913 19.507-8.739l12.017 14.201c-3.278 4.525-7.933 8.141-13.967 10.846-5.983 2.652-12.433 3.979-19.351 3.979zm-2.965-67.26c-7.699 0-12.277 5.098-13.733 15.293h26.529v-2.029c.104-4.214-.962-7.465-3.199-9.754-2.237-2.341-5.436-3.511-9.597-3.511z"/></g><g stroke="#000"><path d="M103.881 101.713L57.574 114.12m4.975-66.18l-11.3 11.3m0 0l-11.3 11.3m11.3-11.3l-11.3-11.3m11.3 11.3l11.3 11.3m57.208-22.599l-11.299 11.3m0 0l-11.3 11.3m11.3-11.3l-11.3-11.3m11.3 11.3l11.299 11.3" stroke-width="6.392"/><path stroke-width="15.98" d="M7.99 7.99h143.821v143.821H7.99z"/></g></g><defs><clipPath id="A"><path fill="#fff" d="M0 0h842v160H0z"/></clipPath></defs></svg>
